X:1
T:Title
%%score { ( 1 2 ) | ( 3 4 ) }
L:1/8
Q:1/4=92
M:6/8
K:G
V:1 treble nm="Grand Piano"
V:2 treble 
V:3 treble 
V:4 treble 
V:1
 B3 z AB | [Ac]2 [GB] [FA]3 | [FA]3 [DF]G[DFA] | [DGB]2 [CDA] [B,DG]3 | [B,EG]3 [CEG][CE][^CA] | %5
w: Robert~Lowry * *|||||
 A6 | A3 ABc | c2 B A3 | B3 Bcd | [Fd]2 [Ac] [GB]3 | [Gc]3 cd[Ge] | [Gd]2 [DGB] [EGc]2 [CEA] | %12
w: |||||||
 [B,DG]3 [A,DF]3 | [B,DG]6 |] %14
w: ||
V:2
 z3 .G3 | x6 | x6 | x6 | x6 | x6 | x6 | x6 | x6 | x6 | z3 .G3 | x6 | x6 | x6 |] %14
V:3
 [G,DG]3 B,C[G,DG] | [D,D]2 [D,D] [D,D]3 | [D,D]3 z ED, | G,2 G, G,3 | E,3 z G,[A,,G,] | [D,F,D]6 | %6
 [D,F,D]3 [D,D]-[D,G,D][D,A,D] | [D,A,D]2 [D,G,D] [D,F,D]3 | z3 .[G,D]3 | [D,A,]2 [D,D] [G,D]3 | %10
 [E,C]3 [E,C][D,B,][C,C] | [G,B,]2 G, C,2 C, | D,3 D,3 | G,,6 |] %14
V:4
 z3 .G,3 | x6 | z3 .[D,A,]3 | x6 | z3 .C,3 | x6 | z3 .F,3 | x6 | [G,D]3 z A,[G,B,D] | x6 | x6 | %11
 x6 | x6 | x6 |] %14

